!!!OTL: Graf und Nonne (Die Nonne) Es wollt ein Witlig heiraten
!!!ARE: Europa, Mitteleuropa, Schweiz, Aargau, Zufikon
!!!YOR: 8, S. 52
!!    1909 aufgezeichnet
!!!SCT: Q0155K
!!!YEM: Copyright 1995, estate of Helmut Schaffrath.
**kern
*ICvox
*Ivox
*M6/8
*k[b-e-]
*B-:
{8f
=1
8b-
8a
8g
8.f
16d
8d
=2
4g
8f
4f}
{8b-
=3
4f
8d
8g
8f
8e-
=4
4.e-
8d
8r}
{8f
=5
8b-
8a
8g
8.f
16d
8d
=6
4g
8f
4f}
{8b-
=7
4f
8d
8g
8f
8e-
=8
4.e-
8d
8r}
{8b-
=9
8cc
8ee-
8ee-
8cc
8a
8f
=10
4b-
8dd
4.dd}
=11
{8.cc
16cc
8cc
8ee-
8dd
8cc
=12
2b-
8r}
{8b-
=13
8cc
8ee-
8ee-
8cc
8a
8f
=14
4b-
8dd
4.dd}
=15
{8.cc
16cc
8cc
8ee-
8dd
8cc
=16
2b-
8r}
==
!!!AGN: Ballade, Standesunterschied, vergebliche Werbung, Liebe, Klage
!!!ONB: ESAC (Essen Associative Code) Database: BALLADE
!!!AMT: compound duple
!!!AIN: vox
!!!EED: Helmut Schaffrath
!!!EEV: 1.0
*-
